X: 1
T: da Slockit Light (harmony)
C: Ed Pearlman
O: Maine
R: air
Z: 2018 John Chambers <jc:trillian.mit.edu>
S: BSFC via Concord Slow Scottish Session collection
M: C
L: 1/8
K: D
FE \
| "D"D3D F2A2 | "A7"AGFE "D"F2A2 | "G"G2B2 "D"F2A2 | "G"GFED "A7"CA,B,C \
| "D"D3D F2A2 | "D"d2A2 "Bm"F2D2 | "G"G2DG "A7"E2C2 | "D"D6 :|
"(A7)"g2 \
| "D"d4 "A"c4 | "Bm"B4 "A"A2Bc | "D"d4 "E7"c2B2 | "A"A6 "A7"c2 \
| "G"d2f2 "A7"c3A | "D"G3c "D/F#"BAGF | "G"B2DG "A7"E2C2  | "D"[D6A,6] |]
"(A7)"E2 \
| "D"D2F2 "A"C3A, | "Bm"B,2F2 G2GF | "G"G2B2 "D"F2A2 |  "G"G2E2 "A7"CA,B,C \
| "D"D3D F2A2 | "A"agfe "Bm"d2F2 | "G"G2D2 "A7"A,3C | "D"D6 |]
